X: 27119
T: Miss Martin's Wedding
R: reel
M: 4/4
K: Amixolydian
|:B|A2 a2 ge g2|egdg eAcA|B2 fg BGfg|BGfg BGAG|
A2 a2 ge g2|egdg eAcA|d2 fd cdec|dBGB AAA:|
|:B|eA ~A2 eAca|eA ~A2 eAcA|dGGG dGBd|efff fedB|
eA ~A2 eAca|eA ~A2 eAcA|d2 fd cdec|dBGB AAA:|

